Facebook.svg

<?xml version="1.0" encoding="UTF-8" standalone="no"?>
<!-- Uploaded to: SVG Repo, www.svgrepo.com, Generator: SVG Repo Mixer Tools -->
<svg width="20px" height="20px" viewBox="0 0 48 48" version="1.1" xmlns="http://www.w3.org/2000/svg" xmlns:xlink="http://www.w3.org/1999/xlink">
    
    <title>Facebook-color</title>
    <desc>Created with Sketch.</desc>
    <defs>

</defs>
    <g id="Icons" stroke="none" stroke-width="1" fill="none" fill-rule="evenodd">
        <g id="Color-" transform="translate(-200.000000, -160.000000)" fill="#4460A0">
            <path d="M225.638355,208 L202.649232,208 C201.185673,208 200,206.813592 200,205.350603 L200,162.649211 C200,161.18585 201.185859,160 202.649232,160 L245.350955,160 C246.813955,160 248,161.18585 248,162.649211 L248,205.350603 C248,206.813778 246.813769,208 245.350955,208 L233.119305,208 L233.119305,189.411755 L239.358521,189.411755 L240.292755,182.167586 L233.119305,182.167586 L233.119305,177.542641 C233.119305,175.445287 233.701712,174.01601 236.70929,174.01601 L240.545311,174.014333 L240.545311,167.535091 C239.881886,167.446808 237.604784,167.24957 234.955552,167.24957 C229.424834,167.24957 225.638355,170.625526 225.638355,176.825209 L225.638355,182.167586 L219.383122,182.167586 L219.383122,189.411755 L225.638355,189.411755 L225.638355,208 L225.638355,208 Z" id="Facebook">

</path>
        </g>
    </g>
</svg>

<?xml version="1.0" encoding="UTF-8" standalone="no"?>
<!-- Uploaded to: SVG Repo, www.svgrepo.com, Generator: SVG Repo Mixer Tools -->

<svg
   width="20"
   height="20"
   viewBox="0 0 48 48"
   version="1.1"
   id="svg1"
   xmlns="http://www.w3.org/2000/svg"
   xmlns:svg="http://www.w3.org/2000/svg">
  <title
     id="title1">Facebook-color</title>
  <desc
     id="desc1">Created with Sketch.</desc>
  <defs
     id="defs1" />
  <g
     id="Icons"
     stroke="none"
     stroke-width="1"
     fill="none"
     fill-rule="evenodd">
    <g
       id="Color-"
       transform="translate(-200,-160)"
       fill="#4460a0">
      <path
         d="M 225.63835,208 H 202.64923 C 201.18567,208 200,206.81359 200,205.3506 V 162.64921 C 200,161.18585 201.18586,160 202.64923,160 h 42.70172 c 1.463,0 2.64905,1.18585 2.64905,2.64921 V 205.3506 C 248,206.81378 246.81377,208 245.35095,208 H 233.1193 v -18.58825 h 6.23922 l 0.93423,-7.24416 h -7.17345 v -4.62495 c 0,-2.09735 0.58241,-3.52663 3.58999,-3.52663 l 3.83602,-0.002 v -6.47924 c -0.66342,-0.0883 -2.94053,-0.28552 -5.58976,-0.28552 -5.53072,0 -9.3172,3.37596 -9.3172,9.57564 v 5.34238 h -6.25523 v 7.24416 h 6.25523 z"
         id="Facebook" />
    </g>
  </g>
</svg>
